X:977
T:Palmer's Gate
R:reel
C:Joe Liddy (1906-1992)
Z:id:hn-reel-977
M:C|
L:1/8
K:Em
BE~E2 GABG | A2BA GEDE | ~G3A BAGA | BedB BAGA |
BE~E2 GABG | AcBA GEDE | GA (3Bcd edBA | GEED E2GA :|
|: Beed ~e3f | g2fg edBA | G2BG dGBA | GA (3Bcd edBA |
Beed ~e3f | g2fg edBA | GA (3Bcd edBA | GEED E2GA :|

